flaticon/productivity-and-development/wine-glass.svg

<svg xmlns="http://www.w3.org/2000/svg" width="32" height="32" viewBox="0 0 24 24">
    <path d="M 9.667969 0 L 9.667969 3.042969 L 2.863281 3.042969 L 2.863281 13.9375 C 2.863281 16.832031 5.199219 19.191406 8.085938 19.226562 L 8.085938 22.980469 L 6.339844 22.980469 L 6.339844 24 L 10.851562 24 L 10.851562 22.980469 L 9.105469 22.980469 L 9.105469 19.226562 C 11.238281 19.203125 13.066406 17.910156 13.882812 16.074219 C 14.214844 16.140625 14.550781 16.179688 14.894531 16.183594 L 14.894531 19.933594 L 13.148438 19.933594 L 13.148438 20.957031 L 17.660156 20.957031 L 17.660156 19.933594 L 15.914062 19.933594 L 15.914062 16.183594 C 18.800781 16.148438 21.136719 13.789062 21.136719 10.894531 L 21.136719 0 Z M 13.308594 13.9375 C 13.308594 16.292969 11.394531 18.207031 9.042969 18.207031 L 8.152344 18.207031 C 5.796875 18.207031 3.882812 16.292969 3.882812 13.9375 L 3.882812 4.066406 L 13.308594 4.066406 Z M 20.117188 10.894531 C 20.117188 13.246094 18.203125 15.160156 15.851562 15.160156 L 14.957031 15.160156 C 14.703125 15.160156 14.453125 15.140625 14.203125 15.09375 C 14.285156 14.722656 14.332031 14.335938 14.332031 13.9375 L 14.332031 3.042969 L 10.691406 3.042969 L 10.691406 1.019531 L 20.117188 1.019531 Z M 20.117188 10.894531"/>
</svg>

<svg xmlns="http://www.w3.org/2000/svg" width="32" height="32" viewBox="0 0 24 24">
    <path d="M9.668 0v3.043H2.863v10.895a5.294 5.294 0 0 0 5.223 5.289v3.753H6.34V24h4.512v-1.02H9.105v-3.753a5.299 5.299 0 0 0 4.778-3.153c.332.067.668.106 1.012.11v3.75h-1.747v1.023h4.512v-1.023h-1.746v-3.75a5.294 5.294 0 0 0 5.223-5.29V0zm3.64 13.938a4.272 4.272 0 0 1-4.265 4.269h-.89a4.273 4.273 0 0 1-4.27-4.27v-9.87h9.426zm6.81-3.043a4.271 4.271 0 0 1-4.266 4.265h-.895c-.254 0-.504-.02-.754-.066.082-.371.129-.758.129-1.156V3.043h-3.64V1.02h9.425zm0 0"/>
</svg>
